X: 1
I: linebreak $
T: Alenchon
T: for couples
C: 
K: A minor
M: 6/4
L: 1/8
A12 | c12 | d12 | A12 | F12 | E12 | 
D12 | D12 | F12 | A12 | c12 | c12 | 
A12 | F12 | D12 | E12 | D12 | D12 | 
F12 | G12 | A12 | A12 | c12 | A12 | 
F12 | D12 | F12 | E12 | D12- | D12 |] 


